X:1
T:Etude 9, Op 176
T:Jean-Baptiste Duvernoy c. 1802 – c. 1880 
%%score { 1 | 2 }
L:1/8
Q:1/4=100
M:4/4
K:D
V:1 treble nm="Piano" snm="Pno."
V:2 bass 
V:1
!p!"^Allegro moderato"!<(! (FGAG FEDE) |"_cresc." (FGAG FEDE) |"_cresc." (FGAG FEDE) | %3
 (FGAB cde!f!f)!<)! |!p!!<(! (gfed cdef) |"_cresc." (gfed cdef) |"_cresc." (gfed cdef) | %7
 (gfef gab!f!c')!<)! |!p!!<(! (d'c'ba babc') | (d'c'ba babc') | (d'c'ba babc') | %11
 (d'c'ba bab!f!c')!<)! |!f! (d'c'ba gfed) | (bagf edcB) | (agfe dcBA) |!p!!<(! (dcBA BABc) | %16
 (dcBA BABc) | (dcBA BABc) | (dcBA BAB!f!c)!<)! | d2 z2 z4 |!f! [Af]4 z4 | [Fd]4 z4 |] %22
V:2
!p! (D,E,F,G, A,G,F,E,) | (D,E,F,G, A,G,F,E,) | (D,E,F,G, A,G,F,E,) | (D,E,F,G, A,B,CD) | %4
 (A,B,CD EDCB,) | (A,B,CD EDCB,) | (A,B,CD EDCB,) | (A,B,CD[K:treble] EFGA) | (FAFA GAGA) | %9
 (FAFA GAGA) | (FAFA GAGA) | (FAFA GAGA) | F4 z4 |[K:bass] G,2 z2 C2 z2 | A,,2 z2 G,2 z2 | %15
 (D,A,F,A,) (D,A,G,A,) | (D,A,F,A,) (D,A,G,A,) | (D,A,F,A,) (D,A,G,A,) | (D,A,F,A,) (D,A,G,A,) | %19
 [D,F,]2 z2 z4 | [D,A,]4 z4 | [D,A,]4 z4 |] %22

